X:482
T: DER KUCKUK AUF DEM ZAUNE
N: E1738
O: Europa, Mitteleuropa, Deutschland
R: Scherz -, Spiel - Lied, Pfaenderspiel, Vexierspiel
M: 2/4
L: 1/16
K: G
d4 | B2B2B2B2 | d2c2A4 |
G2G2G2GG | A2FFD4 | z4
d4 | B2B2B2B2 | d2c2A4 | G4

@@@ Tune index: 5166
